X:141
M:4/4
L:1/4
K:D
[DF] [DF] [CF] [CE] | D [DF] .(,.([DB] [DA])) & D x3 | [Fd] [Fd] [FA] [DF] | [C3E3] z | [CE] [DF] [CG] [DA] | [DB] [Ec] [Fd] [DF] | !sintro![B,E] [B,G] [DF] [CE] | [A,3D3] z !eintro!|]
